X:1
T:Ratisbon, 77.77.77
T:Johann Gottlob Werner, 1815
T:Ratisbon, 77.77.77
T:Public Domain
C:Johann Gottlob Werner, 1815
Z:Public Domain
%%score ( 1 2 ) ( 3 4 )
L:1/8
M:4/4
K:D
V:1 treble 
V:2 treble 
V:3 bass 
V:4 bass 
V:1
 [DA]2 [DA]2 [DB]2 [Gc]2 | [Fd]2 [Fd]2 [Ec]4 | [DB]2 [Fd]2 [EA]2 [DF]2 | [DG]2 [CE]2 D4 | %4
 [DF]2 [DF]2 [CE]2 [DF]2 | [DG]2 [EG]2 [DF]4 | [DF]2 [FB]2 (FE) [DB]2 | [Gc]2 [Fc]2 [DB]4 | %8
 [Dd]2 [DB]2 [CA]2 [DF]2 | [DG]2 (ED) [CF]4 | [FB]2 [DB]2 [EA]2 [DF]2 | [DE]2 [CE]2 D4 |] %12
V:2
 x8 | x8 | x8 | x4 D4 | x8 | x8 | x4 ^A2 x2 | x8 | x8 | x2 G2 x4 | x8 | x4 D4 |] %12
V:3
 [D,F,]2 [F,A,]2 G,2 [E,G,]2 | [D,A,]2 [D,A,]2 [A,,A,]4 | [B,,F,]2 [B,,F,]2 [C,A,]2 [D,A,]2 | %3
 [G,,B,]2 [A,,A,]2 [D,F,]4 | [D,A,]2 [D,A,]2 [A,,A,]2 [D,A,]2 | [B,,B,]2 [C,A,]2 [D,A,]4 | %6
 [D,A,]2 [B,,D]2 [F,C]2 [G,B,]2 | [E,B,]2 [F,^A,]2 [B,,B,]4 | [G,,B,]2 [G,,G,]2 [A,,E,]2 [B,,B,]2 | %9
 [E,B,]2 (CB,) [F,^A,]4 | [D,B,]2 [B,,F,]2 [C,A,]2 [D,A,]2 | [G,,B,]2 [A,,A,]2 [D,F,]4 |] %12
V:4
 x8 | x8 | x8 | x8 | x8 | x8 | x8 | x8 | x8 | x2 E,2 x4 | x8 | x8 |] %12

